src/assets/images/logo.inline.svg

<?xml version="1.0" encoding="UTF-8"?>
<svg width="148px" height="46px" viewBox="0 0 148 46" version="1.1" xmlns="http://www.w3.org/2000/svg" xmlns:xlink="http://www.w3.org/1999/xlink">
    <!-- Generator: Sketch 54.1 (76490) - https://sketchapp.com -->
    <title>Logo</title>
    <desc>Created with Sketch.</desc>
    <g id="Page-1" stroke="none" stroke-width="1" fill="none" fill-rule="evenodd">
        <g id="Desktop-HD-Copy-2" transform="translate(-51.000000, -31.000000)" fill="#09333E">
            <g id="Logo" transform="translate(51.000000, 31.000000)">
                <path d="M128.000431,3.46875657 C129.467862,1.37180371 131.886418,0 134.615714,0 L139.902983,0 C144.367869,0 148,3.66926015 148,8.17898112 L148,13.520299 C148,18.0308258 144.367869,21.7000859 139.902983,21.7000859 L135.269792,21.7000859 L129.386673,26.9676721 C129.064419,27.2557495 128.656019,27.4060332 128.243232,27.4060332 C128.162088,27.4060332 128.080898,27.4002807 128.000233,27.3886979 C127.919645,27.4002859 127.838668,27.4060332 127.757965,27.4060332 C127.344779,27.4060332 126.936378,27.2557495 126.614524,26.9676721 L120.730208,21.7000859 L116.097017,21.7000859 C111.632131,21.7000859 108,18.0308258 108,13.520299 L108,8.17898112 C108,3.66926015 111.632131,-3.55271368e-15 116.097017,-3.55271368e-15 L121.384286,-3.55271368e-15 C124.114314,-3.55271368e-15 126.533005,1.37180371 128.000431,3.46875657 Z M0,18.7717286 L19.9342472,18.7717286 L19.9342472,23.3293954 L12.4530218,23.3293954 L12.4530218,45.6100681 L7.4796301,45.6100681 L7.4796301,23.3293954 L0,23.3293954 L0,18.7717286 Z M28.271239,27.0306462 C29.141084,27.0306462 29.8230807,27.1861677 30.4296989,27.3912466 L30.4296989,31.9767138 C29.3121814,31.4710674 28.1551799,31.4710674 27.69214,31.4710674 C24.4927375,31.4710674 23.1805917,34.3522445 23.1805917,39.1826782 L23.1805917,45.6098263 L18.4776058,45.6098263 L18.4776058,27.4190471 L23.1805917,27.4190471 L23.1805917,30.4219016 C24.4536524,27.8775535 26.2272428,27.0306462 28.271239,27.0306462 Z M45.39889,37.1179488 L45.39889,27.4192083 L50.1018759,27.4192083 L50.1018759,45.6099875 L45.39889,45.6099875 L45.39889,43.0394506 C44.3958362,44.9866927 42.235781,46 40.4243018,46 C36.1827605,46 33.3291424,43.3122176 33.3291424,38.1707408 L33.3291424,27.4192083 L38.0728088,27.4192083 L38.0728088,37.3129551 C38.0728088,40.2735045 39.8452028,41.3649754 41.5043294,41.3649754 C43.4697564,41.3649754 45.39889,40.2735045 45.39889,37.1179488 Z M71.243377,36.4567004 C71.243377,36.9244736 71.2058871,37.6634023 71.1648078,38.0916908 L57.4407195,38.0916908 C57.7482163,40.5067062 59.7527285,41.9881896 62.4149089,41.9881896 C64.226388,41.9881896 66.0757559,41.2077617 66.9232665,39.6505321 C68.0443734,40.2738268 69.3533287,40.9744794 70.5119255,41.5977742 C68.8918841,44.7138451 65.4196829,45.9999194 62.1042214,45.9999194 C56.9772808,45.9999194 52.7736282,42.1831959 52.7736282,36.4567004 C52.7736282,30.7302049 56.9772808,27.0307268 62.1042214,27.0307268 C67.2343527,27.0307268 71.243377,30.7302049 71.243377,36.4567004 Z M57.4012355,34.8595831 L66.6564502,34.8595831 C66.3078741,32.3668069 64.4557144,31.0029719 62.1453008,31.0029719 C59.6757546,31.0029719 57.7482163,32.40468 57.4012355,34.8595831 Z M94.9655779,27.0306462 C99.3199877,27.0306462 101.903599,29.8739501 101.903599,35.2104331 L101.903599,45.6098263 L97.2385016,45.6098263 L97.2385016,35.7160795 C97.2385016,33.105655 95.7755986,31.6660737 93.8448697,31.6660737 C91.725495,31.6660737 90.1840227,33.1455426 90.1840227,35.9110858 L90.1840227,45.6098263 L85.4778462,45.6098263 L85.4778462,35.598834 C85.4399574,33.0677818 84.0149431,31.6660737 82.1627835,31.6660737 C80.2348464,31.6660737 78.3854785,32.7950148 78.3854785,35.9110858 L78.3854785,45.6098263 L73.6797008,45.6098263 L73.6797008,27.4190471 L78.3854785,27.4190471 L78.3854785,30.1068295 C79.3873358,27.8868203 81.8548879,27.0685193 83.5503079,27.0685193 C86.403926,27.2256525 88.2939743,28.2373481 89.2954328,30.4573573 C90.9940434,27.4589347 93.5369741,27.0306462 94.9655779,27.0306462 Z M122.822434,36.4567004 C122.822434,36.9244736 122.784545,37.6634023 122.743865,38.0916908 L109.017782,38.0916908 C109.328869,40.5067062 111.331785,41.9881896 113.993966,41.9881896 C115.805445,41.9881896 117.654813,41.2077617 118.502323,39.6505321 C119.62343,40.2738268 120.932386,40.9744794 122.090982,41.5977742 C120.470941,44.7138451 117.001931,45.9999194 113.683278,45.9999194 C108.556338,45.9999194 104.352685,42.1831959 104.352685,36.4567004 C104.352685,30.7302049 108.556338,27.0307268 113.683278,27.0307268 C118.81341,27.0307268 122.822434,30.7302049 122.822434,36.4567004 Z M108.980292,34.8595831 L118.232317,34.8595831 C117.886931,32.3668069 116.034771,31.0029719 113.723959,31.0029719 C111.256407,31.0029719 109.328869,32.40468 108.980292,34.8595831 Z M116.097017,3.48231201 C113.532948,3.48231201 111.447075,5.58950764 111.447075,8.17898112 L111.447075,13.520299 C111.447075,16.1105783 113.532948,18.2177739 116.097017,18.2177739 L121.384286,18.2177739 C121.80505,18.2177739 122.212653,18.3736983 122.527728,18.6561351 L126.034228,21.7955745 L126.034228,8.17898112 C126.034228,5.58950764 123.948355,3.48231201 121.384286,3.48231201 L116.097017,3.48231201 Z M134.615714,3.48231201 C132.052842,3.48231201 129.96657,5.58950764 129.96657,8.17898112 L129.96657,21.7947687 L133.472272,18.6561351 C133.787347,18.3736983 134.194551,18.2177739 134.615714,18.2177739 L139.902983,18.2177739 C142.467052,18.2177739 144.552925,16.1105783 144.552925,13.520299 L144.552925,8.17898112 C144.552925,5.58950764 142.467052,3.48231201 139.902983,3.48231201 L134.615714,3.48231201 Z" id="Combined-Shape"></path>
            </g>
        </g>
    </g>
</svg>

<svg width="148" height="46" xmlns="http://www.w3.org/2000/svg"><path d="M128 3.469C129.468 1.372 131.886 0 134.616 0h5.287C144.368 0 148 3.67 148 8.179v5.341c0 4.51-3.632 8.18-8.097 8.18h-4.633l-5.883 5.268a1.715 1.715 0 0 1-1.387.42 1.702 1.702 0 0 1-1.385-.42L120.73 21.7h-4.633c-4.465 0-8.097-3.67-8.097-8.18V8.18C108 3.669 111.632 0 116.097 0h5.287c2.73 0 5.149 1.372 6.616 3.469zM0 18.772h19.934v4.557h-7.481V45.61H7.48V23.33H0v-4.558zm28.271 8.259c.87 0 1.552.155 2.159.36v4.586c-1.118-.506-2.275-.506-2.738-.506-3.2 0-4.511 2.881-4.511 7.712v6.427h-4.703V27.419h4.703v3.003c1.273-2.544 3.046-3.391 5.09-3.391zM45.4 37.118v-9.699h4.703V45.61h-4.703v-2.57C44.396 44.986 42.236 46 40.424 46c-4.241 0-7.095-2.688-7.095-7.83V27.42h4.744v9.893c0 2.96 1.772 4.052 3.431 4.052 1.966 0 3.895-1.091 3.895-4.247zm25.844-.661c0 .467-.037 1.206-.078 1.635H57.44c.307 2.415 2.312 3.896 4.974 3.896 1.811 0 3.66-.78 4.508-2.337 1.121.623 2.43 1.323 3.589 1.947C68.892 44.714 65.42 46 62.104 46c-5.127 0-9.33-3.817-9.33-9.543 0-5.727 4.203-9.426 9.33-9.426 5.13 0 9.14 3.7 9.14 9.426zM57.401 34.86h9.255c-.348-2.493-2.2-3.857-4.51-3.857-2.47 0-4.398 1.402-4.745 3.857zm37.565-7.83c4.354 0 6.938 2.844 6.938 8.18v10.4h-4.665v-9.894c0-2.61-1.463-4.05-3.394-4.05-2.12 0-3.661 1.48-3.661 4.245v9.699h-4.706V35.599c-.038-2.531-1.463-3.933-3.315-3.933-1.928 0-3.778 1.129-3.778 4.245v9.699H73.68V27.419h4.705v2.688c1.002-2.22 3.47-3.038 5.165-3.038 2.854.157 4.744 1.168 5.745 3.388 1.699-2.998 4.242-3.426 5.67-3.426zm27.856 9.427c0 .467-.037 1.206-.078 1.635h-13.726c.31 2.415 2.314 3.896 4.976 3.896 1.811 0 3.66-.78 4.508-2.337 1.121.623 2.43 1.323 3.589 1.947-1.62 3.116-5.09 4.402-8.408 4.402-5.127 0-9.33-3.817-9.33-9.543 0-5.727 4.203-9.426 9.33-9.426 5.13 0 9.14 3.7 9.14 9.426zM108.98 34.86h9.252c-.345-2.493-2.197-3.857-4.508-3.857-2.468 0-4.395 1.402-4.744 3.857zm7.117-31.378c-2.564 0-4.65 2.108-4.65 4.697v5.341c0 2.59 2.086 4.698 4.65 4.698h5.287c.421 0 .829.156 1.144.438l3.506 3.14V8.179c0-2.59-2.086-4.697-4.65-4.697h-5.287zm18.519 0c-2.563 0-4.65 2.108-4.65 4.697v13.616l3.506-3.139a1.713 1.713 0 0 1 1.144-.438h5.287c2.564 0 4.65-2.107 4.65-4.698V8.18c0-2.59-2.086-4.697-4.65-4.697h-5.287z" fill="#09333E" fill-rule="evenodd"/></svg>
